!!!OTL: False Night Upon the Road
!!!ONM: 1.
**kern
*clefG2
*k[b-]
*M2/4
*F:
*MM172
{4f
4d
=2
8c
8c
8c
8c
=3
4f
8f
8f
=4
8a
8a
8a
8a
=5
(4a
4g)}
=6
{8f
8f
4f
=7
4d
8c
8c
=8
4f
8a
8a
=9
4.g}
{8f
=10
8c
8c
8c
8c
=11
8f
8f
8f
8f
=12
8a
8a
8a
8a
=13
8cc
8cc}
{8ff
8dd
=14
8cc
8a
8a
8a
=15
4a
8f
8g
=16
8a
8f
4f
=17
4.f}
=||
{8ff
=18
8dd
8cc
8dd
8ee
=19
4ff
8cc
8cc
=20
8dd
8cc
8dd
8ee
=21
4.ff
8r}
=22
{8dd
8cc
8dd
8ee
=23
8ff
8ee
8ff
8dd
=24
8cc
8a
8g
8f
=25
4g}
{8ff
8ff
=26
8dd
8cc
8dd
8ee
=27
4ff
8cc
8cc
=28
8dd
8cc
8dd
8ee
=29
4ff}
{8ee
8dd
=30
8cc
8a
8a
8a
=31
8a
8g
8f
8g
=32
4a
4f
=33
4.f
8r}
==
*-
!!!CNT: Folksongs of Maritime Canada
!!!MRD: 1928///-1932///
!!!OCL: Helen Creighton
!!!YOR: Songs and Ballads from Nova Scotia
!!!PPR: J.M. Dent & Sons, Limited
!!!PPP: Toronto, Canada
!!!PDT: 1932///
!!!reprint: Dover Publications, 1992: ISBN 0-486-21703-5
!!!ENC1: Craig Stuart Sapp (music and bibliographic data)                       
!!!ENC2: Marcus Pearce (phrase markings and key designations)                   
!!!ENC3: Darrell Conklin (phrase markings and key designations)   
!!!END: 2002/04/10/
!!!EEV: 2004/06/05
!!!MPN: Mr. Faulkner and Mr. Ben Henneberry
!!!PPG: 1
!!!EFL: 1/152
!!!ARE: Canada; Nova Scotia
!!!verses: 6
!!!VTS: 194250550
